X:7
T:Trip to Ninny. Ca1758.031
M:C
L:1/8
Q:1/2=80
B:Cahusac,T. 24 Country Dances for the Year 1758
Z:vmp.Mike Hicken 2015 www.village-music-project.org.uk
N:* There is no repeat sign shown here in the original.
K:G
TB>A"_keysig 2 sharps in MS"Bc d2 ge|dBBd cAAc|TB>ABc d2g2| f/g/agf g2G2 :|
|: g2g/a/b af d2|cBce dB G2| egfa gedc|BAGF G2G,2 "*":|
W:
W: The 1st. Cu. cross over and turn .|  Cross
W: up again and turn :|  set across and turn
W: .|  the Wo. do the same :|  Hands across
W: all 4 .|  and back again :|  Cross over
W: two Cu. lead up to the top foot it and
W: cast off:|

